X:1
T:V. My love hath vowd hee will forsake mee
T:V. My love hath vowd hee will forsake mee
T:Cantus
T:Thomas Campion (1567-1620)
C:Thomas Campion (1567-1620)
L:1/8
M:2/2
K:F
V:1 treble 
V:1
|: G4 B2 A2 ^G2 ABcBAG | F2 D2 G2 A2 B2 cB A3 G | G8 :: B2 c2 d2 cB | c2 B2 A2 ^F2 | B2 c2 d2 cB | %6
w: 1.~My love hath vowd hee * will * for- *|sake mee And I am al- * rea- die|sped.|If such dan- ger *|be in play- ing|And sport must to *|
w: Far o- ther pro- mise * he * did *|make me When he had my * mai- den-|head|Maides fore- know their *|owne un- doo- ing,|But feare naught till *|
w: 2.~Had I fore seene what * is * en- *|su- ed, And what now with * paine I|prove|Now thou prov'st to *|me a stran- ger,|Such is the vile *|
w: Un- hap- pie then I * had * es- *|chew- ed, This un- kind e- * vent of|love,|If this shame of *|loves be- try- ing,|But this once I *|
w: 3.~Dis- sem- bling wretch to * gaine * thy *|plea- sure, What didst thou not * vow and|sweare?||||
w: So didst thou rob * me * of * the|trea- sure, Which so long I * held so|deare||||
w: 4.~That hart is neer- * est * to * mis-|for- tune, That will trust a * fain- ed|toong,||||
w: When flat- tring men * our * loves * im-|por- utune, They en- tend us * deep- est|wrong,||||
 c2 c2 d4 | dcBA G2 B2 | A4 G4 :| %9
w: ear- nest turne|I will go no more a|may- ing.|
w: all is done,|When a man a lone is|woo- ing,|
w: guise of men,|When a wo- man is in|dan' ger.|
w: cleane- ly shun,|I will go no more a|may- ing.|
w: |||
w: |||
w: |||
w: |||

